X:524
T: DEM EWGEN UNSRE LIEDER
N: F1003
O: Europa, Mitteleuropa, Deutschland
R: Erbauungs - Lied, religioes
M: 3/4
L: 1/16
K: Eb
B,4 | E6D2C2B,2 | B,3A,G,4
B,4 | E3CB,4D2C2 | B,4z4
B,4 | E6D2C2B,2 | B,3A,G,4
B,4 | E3CB,4D2C2 | B,4z4
B,4 | F6F2F2E2 | E3DD4
C4 | B,6CB,A,2G,2 | G,4F,4
B,4 | E6D2C2B,2 | B,3A,G,4
E4 | F3FE4D4 | E4z4
G,2A,2 | B,3A,G,4F,4 | E,4z4

@@@ Tune index: 5955
